img/instagram.svg

<svg width="20" height="20" viewBox="0 0 20 20" fill="none" xmlns="http://www.w3.org/2000/svg">
<path d="M10.0042 0.00783266C7.28637 0.00783266 6.94456 0.020333 5.87745 0.0661674C4.81451 0.116169 4.08504 0.287006 3.45144 0.532846C2.78394 0.78416 2.17935 1.17806 1.67987 1.68704C1.17068 2.18633 0.776631 2.79069 0.525219 3.45792C0.275115 4.09127 0.108378 4.82045 0.0583576 5.88298C0.0125052 6.94967 0 7.29135 0 10.0081C0 12.7165 0.0125052 13.0623 0.0583576 14.1249C0.108378 15.1915 0.279283 15.9166 0.525219 16.5541C0.776631 17.2213 1.17068 17.8257 1.67987 18.325C2.17935 18.8339 2.78394 19.2278 3.45144 19.4792C4.08504 19.725 4.81451 19.8958 5.87745 19.9417C6.94456 19.9917 7.28637 20 10.0042 20C12.7136 20 13.0596 19.9917 14.1226 19.9417C15.1897 19.8917 15.915 19.725 16.5527 19.4792C17.2202 19.2278 17.8248 18.8339 18.3243 18.325C18.8335 17.8257 19.2275 17.2213 19.4789 16.5541C19.7249 15.9166 19.8958 15.1915 19.9416 14.1249C19.9917 13.0623 20 12.7207 20 10.0039C20 7.29135 19.9917 6.94967 19.9416 5.88298C19.8916 4.82045 19.7249 4.09127 19.4789 3.45792C19.2275 2.79069 18.8335 2.18633 18.3243 1.68704C17.8248 1.17806 17.2202 0.78416 16.5527 0.532846C15.915 0.28284 15.1897 0.116169 14.1226 0.0661674C12.7506 0.00688492 11.3772 -0.0125682 10.0042 0.00783266V0.00783266ZM10.0042 1.80788C12.6719 1.80788 12.9887 1.82038 14.0434 1.86621C15.0188 1.91205 15.544 2.07455 15.8983 2.21205C16.3652 2.39123 16.6986 2.6079 17.0488 2.96207C17.3813 3.28325 17.6377 3.67478 17.7991 4.10794C17.9325 4.46211 18.0992 4.99129 18.1409 5.96632C18.1909 7.02051 18.1992 7.33718 18.1992 10.0081C18.1992 12.6748 18.1909 12.9915 18.1409 14.0457C18.0992 15.0207 17.9325 15.5457 17.7991 15.8999C17.6382 16.3345 17.3818 16.7276 17.0488 17.0499C16.7263 17.3829 16.3331 17.6392 15.8983 17.7999C15.5481 17.9333 15.0188 18.1 14.0434 18.1416C12.9887 18.1916 12.6678 18.2 10 18.2C7.33222 18.2 7.01542 18.1916 5.95665 18.1416C4.98541 18.1 4.45602 17.9333 4.10171 17.7999C3.66689 17.6392 3.27373 17.3829 2.95123 17.0499C2.61817 16.7276 2.36176 16.3345 2.20092 15.8999C2.06753 15.5499 1.90496 15.0207 1.85911 14.0457C1.80039 12.6993 1.78093 11.3515 1.80075 10.0039C1.80075 7.33718 1.81326 7.02051 1.85911 5.96215C1.90496 4.99129 2.06753 4.46211 2.20509 4.10794C2.36593 3.67329 2.62234 3.28028 2.9554 2.95791C3.2767 2.6255 3.66839 2.36922 4.10171 2.20789C4.45602 2.07455 4.98541 1.91205 5.96082 1.86621C7.01542 1.82038 7.33222 1.80788 10.0042 1.80788ZM10.0042 4.87045C8.64216 4.87045 7.33593 5.4113 6.37284 6.37401C5.40975 7.33672 4.8687 8.64244 4.8687 10.0039C4.8687 11.3654 5.40975 12.6711 6.37284 13.6338C7.33593 14.5965 8.64216 15.1374 10.0042 15.1374C11.3662 15.1374 12.6724 14.5965 13.6355 13.6338C14.5986 12.6711 15.1396 11.3654 15.1396 10.0039C15.1396 8.64244 14.5986 7.33672 13.6355 6.37401C12.6724 5.4113 11.3662 4.87045 10.0042 4.87045V4.87045ZM10.0042 13.3415C9.11974 13.3415 8.27154 12.9903 7.64616 12.3652C7.02078 11.74 6.66945 10.8922 6.66945 10.0081C6.66945 9.12401 7.02078 8.27614 7.64616 7.651C8.27154 7.02586 9.11974 6.67467 10.0042 6.67467C10.8886 6.67467 11.7368 7.02586 12.3622 7.651C12.9876 8.27614 13.3389 9.12401 13.3389 10.0081C13.3389 10.8922 12.9876 11.74 12.3622 12.3652C11.7368 12.9903 10.8886 13.3415 10.0042 13.3415ZM16.5402 4.67462C16.5402 4.35635 16.4137 4.05112 16.1886 3.82607C15.9635 3.60102 15.6581 3.47459 15.3397 3.47459C15.0213 3.47459 14.716 3.60102 14.4908 3.82607C14.2657 4.05112 14.1392 4.35635 14.1392 4.67462C14.1392 4.99288 14.2657 5.29812 14.4908 5.52317C14.716 5.74821 15.0213 5.87465 15.3397 5.87465C15.6581 5.87465 15.9635 5.74821 16.1886 5.52317C16.4137 5.29812 16.5402 4.99288 16.5402 4.67462V4.67462Z" fill="#FF7010"/>
</svg>

<svg width="20" height="20" fill="none" xmlns="http://www.w3.org/2000/svg"><path d="M10.004.008c-2.718 0-3.06.012-4.127.058-1.062.05-1.792.221-2.426.467A4.902 4.902 0 0 0 1.68 1.687a4.9 4.9 0 0 0-1.155 1.77C.275 4.092.108 4.82.058 5.884.013 6.95 0 7.291 0 10.008c0 2.709.013 3.054.058 4.117.05 1.066.221 1.792.467 2.43a4.9 4.9 0 0 0 1.155 1.77c.5.509 1.104.903 1.771 1.154.634.246 1.364.417 2.426.463 1.068.05 1.41.058 4.127.058 2.71 0 3.056-.008 4.119-.058 1.067-.05 1.792-.217 2.43-.463a4.905 4.905 0 0 0 1.771-1.154 4.9 4.9 0 0 0 1.155-1.77c.246-.638.417-1.364.463-2.43.05-1.063.058-1.404.058-4.121 0-2.713-.008-3.054-.058-4.121-.05-1.063-.217-1.792-.463-2.425a4.9 4.9 0 0 0-1.155-1.771A4.902 4.902 0 0 0 16.553.533c-.638-.25-1.363-.417-2.43-.467a70.976 70.976 0 0 0-4.119-.058Zm0 1.8c2.668 0 2.985.012 4.04.058.975.046 1.5.209 1.854.346.467.18.8.396 1.15.75.333.321.59.713.751 1.146.134.354.3.883.342 1.858.05 1.055.058 1.371.058 4.042 0 2.667-.008 2.984-.058 4.038-.042.975-.208 1.5-.342 1.854-.16.434-.417.828-.75 1.15-.323.333-.716.59-1.15.75-.35.133-.88.3-1.856.342-1.054.05-1.375.058-4.043.058s-2.985-.008-4.043-.058c-.972-.042-1.501-.209-1.855-.342a3.095 3.095 0 0 1-1.15-.75A3.095 3.095 0 0 1 2.2 15.9c-.133-.35-.296-.88-.342-1.854a69.354 69.354 0 0 1-.058-4.042c0-2.667.012-2.983.058-4.042.046-.97.209-1.5.346-1.854.16-.435.417-.828.75-1.15a3.097 3.097 0 0 1 1.147-.75c.354-.133.883-.296 1.859-.342 1.054-.046 1.371-.058 4.043-.058Zm0 3.062a5.137 5.137 0 0 0-5.135 5.134 5.132 5.132 0 0 0 5.135 5.133 5.137 5.137 0 0 0 5.136-5.133 5.132 5.132 0 0 0-5.136-5.134Zm0 8.471a3.336 3.336 0 0 1-3.335-3.333 3.333 3.333 0 0 1 3.335-3.333 3.335 3.335 0 0 1 3.335 3.333 3.333 3.333 0 0 1-3.335 3.334Zm6.536-8.666a1.2 1.2 0 1 0-2.4 0 1.2 1.2 0 0 0 2.4 0Z" fill="#FF7010"/></svg>
